src/assets/tokens/OVN.svg

<svg width="170" height="170" viewBox="0 0 170 170" fill="none" xmlns="http://www.w3.org/2000/svg">
<rect width="170" height="170" rx="85" fill="#0B1630"/>
<path fill-rule="evenodd" clip-rule="evenodd" d="M120.441 49.5593H56.4746V34H120.441C129.034 34 136 40.9661 136 49.5593L120.441 49.5593L120.441 49.5593ZM120.441 54.7458H120.441V120.441V136C129.034 136 136 129.034 136 120.441V56.4746H120.441V54.7458ZM49.5593 120.441L113.526 120.441V136L115.254 136H49.5593C40.9661 136 34 129.034 34 120.441H49.5593ZM49.5593 34V49.5593V113.525H34V49.5593C34 40.9661 40.9661 34 49.5593 34Z" fill="#0497EC"/>
<path fill-rule="evenodd" clip-rule="evenodd" d="M81.3779 65.1187C80.9913 65.1187 80.6779 65.4321 80.6779 65.8187V78.9492L67.5472 78.9492C67.1606 78.9492 66.8472 79.2626 66.8472 79.6492V88.6221C66.8472 89.0087 67.1606 89.3221 67.5472 89.3221H80.6779V102.453C80.6779 102.839 80.9913 103.153 81.3779 103.153H90.3507C90.7373 103.153 91.0507 102.839 91.0507 102.453V89.3221H104.181C104.568 89.3221 104.881 89.0087 104.881 88.6221V79.6492C104.881 79.2626 104.568 78.9492 104.181 78.9492L91.0507 78.9492V65.8187C91.0507 65.4321 90.7373 65.1187 90.3507 65.1187H81.3779Z" fill="#0497EC"/>
</svg>

<svg width="170" height="170" fill="none" xmlns="http://www.w3.org/2000/svg"><rect width="170" height="170" rx="85" fill="#0B1630"/><path fill-rule="evenodd" clip-rule="evenodd" d="M120.441 49.56H56.475V34h63.966C129.034 34 136 40.966 136 49.56h-15.559zm0 5.186V136c8.593 0 15.559-6.966 15.559-15.559V56.475h-15.559v-1.73zM49.559 120.44h63.967V136h1.728-65.695C40.966 136 34 129.034 34 120.441h15.56zm0-86.441v79.525H34V49.559C34 40.966 40.966 34 49.56 34zm31.819 31.119a.7.7 0 0 0-.7.7v13.13h-13.13a.7.7 0 0 0-.7.7v8.973a.7.7 0 0 0 .7.7h13.13v13.131a.7.7 0 0 0 .7.7h8.973a.7.7 0 0 0 .7-.7v-13.13h13.13a.7.7 0 0 0 .7-.7v-8.974a.7.7 0 0 0-.7-.7h-13.13V65.82a.7.7 0 0 0-.7-.7h-8.973z" fill="#0497EC"/></svg>
